groups/amino_sidechains/isoleucine.svg

<?xml version='1.0' encoding='iso-8859-1'?>
<svg version='1.1' baseProfile='full'
              xmlns='http://www.w3.org/2000/svg'
                      xmlns:rdkit='http://www.rdkit.org/xml'
                      xmlns:xlink='http://www.w3.org/1999/xlink'
                  xml:space='preserve'
width='256px' height='256px' viewBox='0 0 256 256'>
<!-- END OF HEADER -->
<rect style='opacity:1.0;fill:#FFFFFF;stroke:none' width='256.0' height='256.0' x='0.0' y='0.0'> </rect>
<path class='bond-0 atom-1 atom-0' d='M 150.2,126.7 L 146.1,72.2 L 154.2,72.2 Z' style='fill:#000000;fill-rule:evenodd;fill-opacity:1;stroke:#000000;stroke-width:0.5px;stroke-linecap:butt;stroke-linejoin:miter;stroke-miterlimit:10;stroke-opacity:1;' />
<path class='bond-1 atom-1 atom-2' d='M 150.2,126.7 L 103.0,154.1' style='fill:none;fill-rule:evenodd;stroke:#000000;stroke-width:2.0px;stroke-linecap:butt;stroke-linejoin:miter;stroke-opacity:1' />
<path class='bond-2 atom-2 atom-3' d='M 103.0,154.1 L 67.3,133.5' style='fill:none;fill-rule:evenodd;stroke:#000000;stroke-width:2.0px;stroke-linecap:butt;stroke-linejoin:miter;stroke-opacity:1' />
<path class='bond-3 atom-1 atom-4' d='M 150.2,126.7 L 185.8,147.3' style='fill:none;fill-rule:evenodd;stroke:#000000;stroke-width:2.0px;stroke-linecap:butt;stroke-linejoin:miter;stroke-opacity:1' />
<path d='M 147.8,128.1 L 150.2,126.7 L 152.0,127.8' style='fill:none;stroke:#000000;stroke-width:2.0px;stroke-linecap:butt;stroke-linejoin:miter;stroke-miterlimit:10;stroke-opacity:1;' />
<path d='M 105.3,152.7 L 103.0,154.1 L 101.2,153.0' style='fill:none;stroke:#000000;stroke-width:2.0px;stroke-linecap:butt;stroke-linejoin:miter;stroke-miterlimit:10;stroke-opacity:1;' />
<path class='atom-1' d='M122.866,72.2027 C122.868,74.2486 125.596,74.2464 125.594,72.2005 C125.593,70.1546 128.321,70.1524 128.322,72.1983 C128.324,74.2442 131.052,74.2421 131.05,72.1961 C131.049,70.1502 133.777,70.1481 133.778,72.194 C133.78,74.2399 136.508,74.2377 136.506,72.1918 C136.505,70.1459 139.233,70.1437 139.235,72.1896 C139.236,74.2355 141.964,74.2333 141.963,72.1874 C141.961,70.1415 144.689,70.1393 144.691,72.1852 C144.692,74.2311 147.42,74.229 147.419,72.1831 C147.417,70.1371 150.145,70.135 150.147,72.1809 C150.148,74.2268 152.876,74.2246 152.875,72.1787 C152.873,70.1328 155.601,70.1306 155.603,72.1765 C155.604,74.2224 158.332,74.2202 158.331,72.1743 C158.329,70.1284 161.057,70.1262 161.059,72.1721 C161.06,74.2181 163.788,74.2159 163.787,72.17 C163.785,70.124 166.513,70.1219 166.515,72.1678 C166.516,74.2137 169.245,74.2115 169.243,72.1656 C169.241,70.1197 171.969,70.1175 171.971,72.1634 C171.973,74.2093 174.701,74.2071 174.699,72.1612 C174.697,70.1153 177.425,70.1131 177.427,72.159' style='fill:none;stroke:#7F7F7F;stroke-width:2.0px;stroke-linecap:butt;stroke-linejoin:miter;stroke-opacity:1' />
<text x='12.8' y='143.2' class='atom-3' style='font-size:32px;font-style:normal;font-weight:normal;fill-opacity:1;stroke:none;font-family:sans-serif;text-anchor:start;fill:#000000' >H</text>
<text x='35.4' y='156.3' class='atom-3' style='font-size:21px;font-style:normal;font-weight:normal;fill-opacity:1;stroke:none;font-family:sans-serif;text-anchor:start;fill:#000000' >3</text>
<text x='45.9' y='143.2' class='atom-3' style='font-size:32px;font-style:normal;font-weight:normal;fill-opacity:1;stroke:none;font-family:sans-serif;text-anchor:start;fill:#000000' >C</text>
<text x='187.6' y='170.3' class='atom-4' style='font-size:32px;font-style:normal;font-weight:normal;fill-opacity:1;stroke:none;font-family:sans-serif;text-anchor:start;fill:#000000' >C</text>
<text x='210.2' y='170.3' class='atom-4' style='font-size:32px;font-style:normal;font-weight:normal;fill-opacity:1;stroke:none;font-family:sans-serif;text-anchor:start;fill:#000000' >H</text>
<text x='232.8' y='183.4' class='atom-4' style='font-size:21px;font-style:normal;font-weight:normal;fill-opacity:1;stroke:none;font-family:sans-serif;text-anchor:start;fill:#000000' >3</text>
<text x='112.4' y='121.3' class='note' style='font-size:16px;font-style:normal;font-weight:normal;fill-opacity:1;stroke:none;font-family:sans-serif;text-anchor:start;fill:#000000' >(</text>
<text x='118.0' y='121.3' class='note' style='font-size:16px;font-style:normal;font-weight:normal;fill-opacity:1;stroke:none;font-family:sans-serif;text-anchor:start;fill:#000000' >S</text>
<text x='129.3' y='121.3' class='note' style='font-size:16px;font-style:normal;font-weight:normal;fill-opacity:1;stroke:none;font-family:sans-serif;text-anchor:start;fill:#000000' >)</text>
</svg>

<svg height="256" viewBox="0 0 256 256" width="256" xmlns="http://www.w3.org/2000/svg"><path d="m0 0h256v256h-256z" fill="#fff"/><path d="m150.2 126.7-4.1-54.5h8.1z" fill-rule="evenodd" stroke="#000" stroke-miterlimit="10" stroke-width=".5"/><path d="m150.2 126.7-47.2 27.4" fill="none" stroke="#000" stroke-width="2"/><path d="m103 154.1-35.7-20.6" fill="none" stroke="#000" stroke-width="2"/><path d="m150.2 126.7 35.6 20.6" fill="none" stroke="#000" stroke-width="2"/><path d="m147.8 128.1 2.4-1.4 1.8 1.1" fill="none" stroke="#000" stroke-miterlimit="10" stroke-width="2"/><path d="m105.3 152.7-2.3 1.4-1.8-1.1" fill="none" stroke="#000" stroke-miterlimit="10" stroke-width="2"/><path d="m122.866 72.203c.002 2.046 2.73 2.043 2.728-.002-.001-2.046 2.727-2.049 2.728-.003.002 2.046 2.73 2.044 2.728-.002-.001-2.046 2.727-2.048 2.728-.002.002 2.046 2.73 2.044 2.728-.002-.001-2.046 2.727-2.048 2.729-.002.001 2.046 2.729 2.043 2.728-.003-.002-2.045 2.726-2.048 2.728-.002.001 2.046 2.729 2.044 2.728-.002-.002-2.046 2.726-2.048 2.728-.002.001 2.046 2.729 2.044 2.728-.002-.002-2.046 2.726-2.048 2.728-.002.001 2.045 2.729 2.043 2.728-.003-.002-2.046 2.726-2.048 2.728-.002.001 2.046 2.729 2.044 2.728-.002-.002-2.046 2.726-2.048 2.728-.002.001 2.046 2.73 2.044 2.728-.002s2.726-2.048 2.728-.003c.002 2.046 2.73 2.044 2.728-.002s2.726-2.048 2.728-.002" fill="none" stroke="#7f7f7f" stroke-width="2"/><g font-family="sans-serif"><text font-size="32" x="12.8" y="143.2">H</text><text font-size="21" x="35.4" y="156.3">3</text><text font-size="32" x="45.9" y="143.2">C</text><text font-size="32" x="187.6" y="170.3">C</text><text font-size="32" x="210.2" y="170.3">H</text><text font-size="21" x="232.8" y="183.4">3</text><text font-size="16" x="112.4" y="121.3">(</text><text font-size="16" x="118" y="121.3">S</text><text font-size="16" x="129.3" y="121.3">)</text></g></svg>
